X: 3
T: I Buried My Wife And Danced On Her Grave
R: jig
M: 6/8
L: 1/8
K: Dmix
|:D3 F2G | AdB cAF | G3 BAG | F3 GEA |
D3 F2G | AdB cAF | G3 BAG | AFD D2A :|
|:d2e fed | faf gfe | d2e fed | dcA dcA |
d2e fed | faf gfe | dcA BAG | AFD D3 :|


Tune 381	Setting 381

